X:1
T:Title
%%score { 1 | 2 }
L:1/8
Q:1/4=82
M:2/4
K:Ab
V:1 treble nm="Grand Piano"
V:2 bass 
V:1
 cc BB | [CA][CA] [CE]2 | [DF][FA] [FA]2 | GB B2 | cc BB | [CA][CA] [CE]2 | FB AG | [CA]4 | AF FA | %9
w: D.~B.~Towner * * *|||||||||
 [CA][CE] [CE]2 | GB B2 | [CA][Ec] [Ec]2 | AF FA | [CA][CE] [CE]2 | FB AG | [CA]4 |] %16
w: |||||||
V:2
 [A,E][A,E] [E,G,D][E,G,D] | [A,,A,][A,,A,] [A,,A,]2 | [D,A,][D,D] [D,D]2 | %3
 [E,B,E][E,G,E] [E,G,E]2 | [A,E][A,E] [E,G,D][E,G,D] | [A,,A,][A,,A,] [A,,A,]2 | %6
 [D,A,D][D,F,D] [E,C][E,B,] | [A,,E,]4 | [D,F,D][D,A,D] [D,A,D][D,F,D] | [A,,E,][A,,A,] [A,,A,]2 | %10
 [E,B,D][E,G,D] [E,G,D]2 | [A,,E,][A,,A,] [A,,A,]2 | [D,F,D][D,A,D] [D,A,D][D,F,D] | %13
 [A,,E,][A,,A,] [A,,A,]2 | [D,A,D][D,F,D] [E,C][E,B,] | [A,,E,]4 |] %16

